dist/files/product_tracking_logo.svg

<svg width="142" height="142" viewBox="0 0 142 142" fill="none" xmlns="http://www.w3.org/2000/svg">
<g filter="url(#filter0_d_5327_2742)">
<circle cx="67" cy="68" r="59" fill="#152968"/>
</g>
<mask id="mask0_5327_2742" style="mask-type:luminance" maskUnits="userSpaceOnUse" x="33" y="28" width="69" height="80">
<path d="M33 28H101.092V107.332H33V28Z" fill="white"/>
</mask>
<g mask="url(#mask0_5327_2742)">
<path d="M101.05 48.2231C101.05 48.2152 101.05 48.2085 101.048 48.2006C101.048 48.1848 101.047 48.1713 101.047 48.1555C101.045 48.1273 101.045 48.1025 101.04 48.0766C101.038 48.0642 101.037 48.0529 101.035 48.0383C101.03 48.009 101.027 47.9808 101.019 47.9515C101.017 47.9436 101.014 47.9335 101.013 47.9256C101.005 47.894 100.997 47.8624 100.987 47.8309C100.985 47.8253 100.983 47.8185 100.982 47.8129C100.969 47.779 100.957 47.7452 100.943 47.7137C100.941 47.708 100.938 47.7024 100.935 47.6956C100.92 47.6641 100.904 47.6325 100.888 47.601C100.886 47.5987 100.886 47.5976 100.884 47.5953C100.882 47.5908 100.88 47.5897 100.876 47.5852C100.852 47.5457 100.828 47.5086 100.801 47.4725C100.795 47.4623 100.787 47.4545 100.781 47.4443C100.752 47.4049 100.718 47.3677 100.684 47.3339C100.678 47.3282 100.671 47.3226 100.664 47.3158C100.637 47.2899 100.609 47.2651 100.579 47.2426C100.559 47.2268 100.542 47.2133 100.522 47.1997C100.506 47.1873 100.49 47.1772 100.474 47.1682C100.459 47.158 100.443 47.1434 100.425 47.1344L67.6659 28.2235C67.2624 27.9902 66.7789 28.006 66.4036 28.2258L33.6424 47.1378C33.2152 47.3857 32.9898 47.8467 33.0191 48.3076V86.0482C33.0191 86.4821 33.2446 86.9058 33.6492 87.1369L66.3067 105.988C66.3101 105.99 66.3123 105.991 66.3157 105.994C66.3619 106.025 66.407 106.053 66.4566 106.079C66.469 106.085 66.4803 106.091 66.4904 106.095C66.5355 106.116 66.5817 106.135 66.629 106.153C66.6369 106.154 66.6448 106.158 66.6527 106.16C66.7057 106.178 66.762 106.19 66.8172 106.2C66.8308 106.202 66.8443 106.203 66.8589 106.206C66.9164 106.213 66.975 106.219 67.0348 106.219C67.0348 106.219 67.0348 106.219 67.037 106.219C67.0979 106.219 67.1554 106.213 67.2151 106.206C67.2286 106.203 67.241 106.202 67.2545 106.2C67.312 106.19 67.3672 106.178 67.4213 106.16C67.4292 106.158 67.4349 106.154 67.4428 106.153C67.4901 106.137 67.5374 106.116 67.5836 106.095C67.5949 106.088 67.6051 106.085 67.6163 106.079C67.6659 106.053 67.7121 106.025 67.7572 105.994C67.7617 105.991 67.7628 105.99 67.7673 105.988L78.8429 99.5942C79.456 100.699 80.0556 101.759 80.6124 102.742C81.4678 104.253 82.2117 105.57 82.7324 106.562C82.8473 106.781 83.0277 106.97 83.2655 107.095C83.8797 107.415 84.6371 107.177 84.9583 106.562C85.4745 105.578 86.215 104.268 87.067 102.761C88.9571 99.4139 91.3769 95.1322 93.0652 91.3848L100.427 87.1369C100.831 86.9058 101.056 86.4843 101.056 86.0482L101.05 48.2231ZM67.0348 65.6857L66.0959 65.1436L36.7891 48.2242L45.8405 42.9992L76.0861 60.4595L72.3759 62.6021L67.0348 65.6857ZM56.1159 37.0687L86.3615 54.5278L78.6006 59.0068L48.355 41.5476L56.1159 37.0687ZM80.0725 61.1628C82.5881 59.7055 85.1003 58.2392 87.6136 56.7718V62.0013L80.0725 66.3551V61.1628ZM67.0348 30.7639L97.2826 48.2242L88.8726 53.0785L58.6247 35.6193L67.0348 30.7639ZM35.5313 50.4006L64.2487 66.9739L65.7758 67.8553V102.782L35.5291 85.3223L35.5313 50.4006ZM84.8772 101.531L83.8414 103.368L82.7921 101.502C79.6837 96.0057 75.1022 87.9055 75.1022 84.7149C75.1022 82.2398 76.0828 80.0015 77.6663 78.3864C79.2464 76.777 81.4306 75.7796 83.8414 75.7796C86.2533 75.7796 88.4364 76.777 90.0165 78.3864C91.6012 80.0015 92.5806 82.2376 92.5806 84.7149C92.5806 85.8825 91.9607 87.7173 91.0241 89.8418C90.9711 89.9309 90.9294 90.0255 90.9001 90.1247C89.2783 93.7403 86.7932 98.1369 84.8772 101.531ZM94.5349 87.6339C94.891 86.5035 95.1007 85.5061 95.1007 84.7126C95.1007 81.5569 93.8418 78.6964 91.8085 76.6226C89.7697 74.5443 86.9521 73.2572 83.8414 73.2572C80.7307 73.2572 77.9142 74.5443 75.8743 76.6226C73.8399 78.6964 72.5821 81.5569 72.5821 84.7126C72.5821 87.466 75.0436 92.5952 77.6313 97.3908L68.2959 102.779V67.8654C71.3841 66.1444 74.4688 64.3896 77.5502 62.6156V68.5304C77.5502 69.2269 78.1137 69.7915 78.8114 69.7915C79.0818 69.7915 79.3332 69.7059 79.5394 69.5594L89.4981 63.8114C89.9016 63.5792 90.1281 63.1577 90.1281 62.7227H90.1337V55.2976C92.939 53.6589 95.7408 52.0235 98.5404 50.4006L98.5416 85.3201L94.5349 87.6339ZM46.7669 86.6759C46.4221 87.2755 45.6545 87.484 45.0527 87.1391L38.5147 83.3669C37.9151 83.022 37.7077 82.2545 38.0514 81.6527C38.3963 81.0519 39.165 80.8446 39.7668 81.1894L46.3037 84.9617C46.9056 85.3088 47.1118 86.0741 46.7669 86.6759ZM83.8414 79.0153C82.4157 79.0153 81.1229 79.6059 80.1886 80.5594C79.2588 81.5073 78.6817 82.8146 78.6817 84.2528C78.6817 85.6909 79.2588 86.9983 80.1886 87.9472C81.1229 88.9007 82.4157 89.4913 83.8414 89.4913C85.2671 89.4913 86.5599 88.9007 87.4942 87.9472C88.4251 86.9983 89.0011 85.692 89.0011 84.2528C89.0011 82.8158 88.4251 81.5073 87.4942 80.5594C86.5599 79.6059 85.2671 79.0153 83.8414 79.0153ZM85.7022 86.1834C85.2277 86.668 84.5683 86.969 83.8414 86.969C83.1156 86.969 82.4562 86.668 81.9806 86.1834C81.5016 85.6943 81.203 85.0113 81.203 84.2528C81.203 83.4954 81.4994 82.8124 81.9806 82.3232C82.4562 81.8386 83.1156 81.5377 83.8414 81.5377C84.5683 81.5377 85.2277 81.8386 85.7022 82.3232C86.1834 82.8124 86.481 83.4954 86.481 84.2528C86.481 85.0113 86.1834 85.692 85.7022 86.1834Z" fill="#FAFAFA"/>
</g>
<defs>
<filter id="filter0_d_5327_2742" x="0.6" y="0.6" width="140.8" height="140.8" filterUnits="userSpaceOnUse" color-interpolation-filters="sRGB">
<feFlood flood-opacity="0" result="BackgroundImageFix"/>
<feColorMatrix in="SourceAlpha" type="matrix" values="0 0 0 0 0 0 0 0 0 0 0 0 0 0 0 0 0 0 127 0" result="hardAlpha"/>
<feOffset dx="4" dy="3"/>
<feGaussianBlur stdDeviation="5.7"/>
<feComposite in2="hardAlpha" operator="out"/>
<feColorMatrix type="matrix" values="0 0 0 0 0.128333 0 0 0 0 0.119778 0 0 0 0 0.119778 0 0 0 0.25 0"/>
<feBlend mode="normal" in2="BackgroundImageFix" result="effect1_dropShadow_5327_2742"/>
<feBlend mode="normal" in="SourceGraphic" in2="effect1_dropShadow_5327_2742" result="shape"/>
</filter>
</defs>
</svg>

<svg width="142" height="142" fill="none" xmlns="http://www.w3.org/2000/svg"><g filter="url(#a)"><circle cx="67" cy="68" r="59" fill="#152968"/></g><mask id="b" style="mask-type:luminance" maskUnits="userSpaceOnUse" x="33" y="28" width="69" height="80"><path d="M33 28h68.092v79.332H33V28Z" fill="#fff"/></mask><g mask="url(#b)"><path d="M101.05 48.223c0-.008 0-.014-.002-.022l-.001-.045c-.002-.029-.002-.053-.007-.08l-.005-.038c-.005-.029-.008-.057-.016-.086l-.006-.026c-.008-.032-.016-.064-.026-.095a.12.12 0 0 1-.005-.018c-.013-.034-.025-.068-.039-.1l-.008-.017a4.153 4.153 0 0 0-.047-.095l-.004-.006-.008-.01a1.395 1.395 0 0 0-.075-.113c-.006-.01-.014-.017-.02-.028a.967.967 0 0 0-.097-.11l-.02-.018a.926.926 0 0 0-.085-.073c-.02-.016-.037-.03-.057-.043a.387.387 0 0 0-.048-.032c-.015-.01-.031-.025-.049-.034l-32.76-18.91a1.257 1.257 0 0 0-1.261.002L33.642 47.138a1.258 1.258 0 0 0-.623 1.17v37.74c0 .434.226.858.63 1.089l32.658 18.851.009.006c.046.031.091.059.14.085l.034.016c.046.021.092.04.139.058.008.001.016.005.024.007.053.018.109.03.164.04l.042.006c.057.007.116.013.176.013h.002c.06 0 .118-.006.178-.013l.04-.006c.057-.01.112-.022.166-.04.008-.002.014-.006.022-.007.047-.016.094-.037.14-.058.012-.007.022-.01.033-.016.05-.026.096-.054.141-.085l.01-.006 11.076-6.394a409.456 409.456 0 0 0 1.77 3.148c.855 1.511 1.599 2.828 2.12 3.82a1.255 1.255 0 0 0 2.226 0c.516-.984 1.256-2.294 2.108-3.801 1.89-3.347 4.31-7.629 5.998-11.376l7.362-4.248a1.25 1.25 0 0 0 .629-1.089l-.006-37.825ZM67.035 65.686l-.94-.542-29.306-16.92L45.84 43l30.246 17.46-3.71 2.143-5.341 3.084Zm-10.92-28.617 30.247 17.459-7.761 4.479-30.246-17.46 7.76-4.478Zm23.958 24.094a2567.7 2567.7 0 0 0 7.54-4.391v5.23l-7.54 4.353v-5.192Zm-13.038-30.4 30.248 17.461-8.41 4.855-30.248-17.46 8.41-4.855ZM35.53 50.402 64.25 66.974l1.527.881v34.927l-30.247-17.46.002-34.921Zm49.346 51.13-1.036 1.837-1.049-1.866c-3.108-5.496-7.69-13.596-7.69-16.787 0-2.475.98-4.714 2.564-6.329a8.63 8.63 0 0 1 6.175-2.606c2.412 0 4.595.997 6.175 2.606a9.002 9.002 0 0 1 2.565 6.329c0 1.167-.62 3.002-1.557 5.127a1.24 1.24 0 0 0-.124.283c-1.622 3.615-4.107 8.012-6.023 11.406Zm9.658-13.897c.356-1.13.566-2.128.566-2.921 0-3.156-1.26-6.017-3.293-8.09-2.038-2.079-4.856-3.366-7.967-3.366-3.11 0-5.927 1.287-7.967 3.366a11.52 11.52 0 0 0-3.292 8.09c0 2.753 2.462 7.882 5.05 12.678l-9.336 5.388V67.865a763.02 763.02 0 0 0 9.254-5.25v5.915a1.26 1.26 0 0 0 1.99 1.03l9.958-5.749c.404-.232.63-.653.63-1.088h.006v-7.425c2.805-1.64 5.607-3.275 8.406-4.897l.002 34.92-4.007 2.313Zm-47.768-.958c-.345.6-1.113.808-1.714.463l-6.538-3.772a1.258 1.258 0 0 1-.464-1.714 1.258 1.258 0 0 1 1.716-.464l6.537 3.773c.602.347.808 1.112.463 1.714Zm37.074-7.66a5.1 5.1 0 0 0-3.652 1.543 5.265 5.265 0 0 0-1.507 3.694c0 1.438.577 2.745 1.507 3.694a5.1 5.1 0 0 0 3.652 1.544 5.1 5.1 0 0 0 3.653-1.544 5.262 5.262 0 0 0 1.507-3.694 5.262 5.262 0 0 0-1.507-3.694 5.1 5.1 0 0 0-3.653-1.544Zm1.861 7.167a2.599 2.599 0 0 1-3.721 0 2.75 2.75 0 0 1-.778-1.93c0-.758.296-1.44.778-1.93a2.598 2.598 0 0 1 3.722 0c.48.49.778 1.172.778 1.93s-.298 1.439-.779 1.93Z" fill="#FAFAFA"/></g><defs><filter id="a" x=".6" y=".6" width="140.8" height="140.8" filterUnits="userSpaceOnUse" color-interpolation-filters="sRGB"><feFlood flood-opacity="0" result="BackgroundImageFix"/><feColorMatrix in="SourceAlpha" values="0 0 0 0 0 0 0 0 0 0 0 0 0 0 0 0 0 0 127 0" result="hardAlpha"/><feOffset dx="4" dy="3"/><feGaussianBlur stdDeviation="5.7"/><feComposite in2="hardAlpha" operator="out"/><feColorMatrix values="0 0 0 0 0.128333 0 0 0 0 0.119778 0 0 0 0 0.119778 0 0 0 0.25 0"/><feBlend in2="BackgroundImageFix" result="effect1_dropShadow_5327_2742"/><feBlend in="SourceGraphic" in2="effect1_dropShadow_5327_2742" result="shape"/></filter></defs></svg>
